icons/svg/app-store.svg

<svg width="24" height="24" viewBox="0 0 24 24" fill="none" xmlns="http://www.w3.org/2000/svg">
<path d="M10.9039 13.794H12.9282L11.9161 12.0394L10.9039 13.794Z" fill="currentColor"/>
<path d="M8.84285 17.3668L7.26242 20.1065C6.76952 20.9609 5.67787 21.2537 4.82414 20.7604C3.97042 20.2671 3.67791 19.1745 4.17081 18.3201L4.72071 17.3668M8.84285 17.3668H4.72071M8.84285 17.3668L14.9893 17.3668M4.72071 17.3668H4.25467C3.26887 17.3668 2.46973 16.567 2.46973 15.5804C2.46973 14.5938 3.26887 13.794 4.25467 13.794H6.78178L9.85501 8.46653L8.82438 6.67994C8.33148 5.8255 8.62399 4.73294 9.47771 4.23963C10.3314 3.74633 11.4233 4.03908 11.9162 4.89351C12.4091 4.03908 13.5007 3.74633 14.3544 4.23963C15.2082 4.73294 15.5007 5.8255 15.0078 6.67994L13.9772 8.46641M12.9282 13.794H10.9039L11.9161 12.0394M12.9282 13.794L14.9893 17.3668M12.9282 13.794L11.9161 12.0394M14.9893 17.3668L16.5697 20.1065C17.0626 20.9609 18.1543 21.2537 19.008 20.7604C19.8617 20.2671 20.1542 19.1745 19.6614 18.3201L19.1115 17.3668H19.7454C20.7312 17.3668 21.5303 16.567 21.5303 15.5804C21.5303 14.5938 20.7312 13.794 19.7454 13.794H17.0504L13.9772 8.46641M13.9772 8.46641L11.9161 12.0394" stroke="currentColor" stroke-width="1.5" stroke-linejoin="round"/>
</svg>

<svg xmlns="http://www.w3.org/2000/svg" width="24" height="24" fill="none" viewBox="0 0 24 24"><path fill="currentColor" d="M10.904 13.794h2.024l-1.012-1.755z"/><path stroke="currentColor" stroke-linejoin="round" stroke-width="1.5" d="m8.843 17.367-1.58 2.74A1.784 1.784 0 1 1 4.17 18.32l.55-.953m4.122 0H4.72m4.122 0h6.146m-10.268 0h-.466a1.786 1.786 0 0 1 0-3.573h2.527l3.073-5.327-1.03-1.787a1.784 1.784 0 1 1 3.092-1.786 1.784 1.784 0 1 1 3.09 1.786l-1.03 1.786m-1.049 5.328h-2.024l1.012-1.755m1.012 1.755 2.061 3.573m-2.06-3.573-1.013-1.755m3.073 5.328 1.58 2.74a1.784 1.784 0 1 0 3.092-1.787l-.55-.953h.634a1.786 1.786 0 0 0 0-3.573H17.05l-3.073-5.328m0 0-2.06 3.573"/></svg>
